packages/tokens/icons/angryUser/size32Px.svg

<svg viewBox="0 0 32 32" fill="none" xmlns="http://www.w3.org/2000/svg" width="1em" height="1em"><path d="M22.5 29.5V28.5C22.5 26.2909 20.7091 24.5 18.5 24.5H13.5C11.2909 24.5 9.5 26.2909 9.5 28.5V29.5" stroke="currentColor" stroke-linecap="round"/><path d="M16 21.5C17.933 21.5 19.5 19.933 19.5 18C19.5 16.067 17.933 14.5 16 14.5C14.067 14.5 12.5 16.067 12.5 18C12.5 19.933 14.067 21.5 16 21.5Z" stroke="currentColor" stroke-linecap="round" stroke-linejoin="round"/><path d="M10.5 2.5L20 2.5C20.8284 2.5 21.5 3.17157 21.5 4V4C21.5 4.82843 20.8284 5.5 20 5.5L12 5.5C11.1716 5.5 10.5 6.17157 10.5 7V7C10.5 7.82843 11.1716 8.5 12 8.5L20 8.5C20.8284 8.5 21.5 9.17157 21.5 10V10C21.5 10.8284 20.8284 11.5 20 11.5L15.5 11.5" stroke="currentColor" stroke-linecap="round" stroke-linejoin="round"/></svg>

<svg xmlns="http://www.w3.org/2000/svg" fill="none" viewBox="0 0 32 32" width="1em" height="1em"><path stroke="currentColor" stroke-linecap="round" d="M22.5 29.5v-1a4 4 0 0 0-4-4h-5a4 4 0 0 0-4 4v1"/><path stroke="currentColor" stroke-linecap="round" stroke-linejoin="round" d="M16 21.5a3.5 3.5 0 1 0 0-7 3.5 3.5 0 0 0 0 7Zm-5.5-19H20A1.5 1.5 0 0 1 21.5 4v0A1.5 1.5 0 0 1 20 5.5h-8A1.5 1.5 0 0 0 10.5 7v0A1.5 1.5 0 0 0 12 8.5h8a1.5 1.5 0 0 1 1.5 1.5v0a1.5 1.5 0 0 1-1.5 1.5h-4.5"/></svg>
